picto/meeting-point-framed.svg

<svg class="color-immutable" width="30" height="30" viewBox="0 0 30 30" fill="none" xmlns="http://www.w3.org/2000/svg"><path d="M0 0H29.9999V29.9999H0V0Z" fill="#2D327D"/><path d="M25.4999 2.99999C26.3249 2.99999 26.9999 3.67499 26.9999 4.49999V25.4999C26.9999 26.3249 26.3249 26.9999 25.4999 26.9999H4.49999C3.67499 26.9999 2.99999 26.3249 2.99999 25.4999V4.49999C2.99999 3.67499 3.67499 2.99999 4.49999 2.99999H25.4999ZM25.4999 2.62499H4.49999C3.46612 2.62499 2.62499 3.46612 2.62499 4.49999V25.4999C2.62499 26.5338 3.46612 27.3749 4.49999 27.3749H25.4999C26.5338 27.3749 27.3749 26.5338 27.3749 25.4999V4.49999C27.3749 3.46612 26.5338 2.62499 25.4999 2.62499Z" fill="white"/><path d="M14.9999 10.8124C12.6888 10.8124 10.8131 12.6883 10.8131 14.9994C10.8131 17.3106 12.6888 19.1863 14.9999 19.1863C17.311 19.1863 19.1868 17.3106 19.1868 14.9994C19.1868 12.6883 17.311 10.8124 14.9999 10.8124Z" fill="white"/><path d="M10.5591 20.2478L10.4246 23.3426L11.5011 22.2663V18.4983H7.73315L6.6566 19.5748L9.75177 19.4403L5.86498 23.3269L6.67243 24.1344L10.5591 20.2478Z" fill="white"/><path d="M6.6566 10.4242L7.73315 11.5008H11.5011V7.73263L10.4246 6.65609L10.5591 9.75118L6.67243 5.86461L5.86498 6.67184L9.75177 10.5587L6.6566 10.4242Z" fill="white"/><path d="M23.3433 19.5748L22.2667 18.4983H18.4987V22.2663L19.5753 23.3426L19.4407 20.2478L23.3275 24.1344L24.1349 23.3269L20.2481 19.4403L23.3433 19.5748Z" fill="white"/><path d="M19.4407 9.75118L19.5753 6.65609L18.4987 7.73263V11.5008H22.2667L23.3433 10.4242L20.2481 10.5587L24.1349 6.67184L23.3275 5.86461L19.4407 9.75118Z" fill="white"/></svg>

<svg class="color-immutable" width="30" height="30" viewBox="0 0 30 30" fill="none" xmlns="http://www.w3.org/2000/svg"><path d="M0 0h30v30H0V0Z" fill="#2D327D"/><path d="M25.5 3c.825 0 1.5.675 1.5 1.5v21c0 .825-.675 1.5-1.5 1.5h-21c-.825 0-1.5-.675-1.5-1.5v-21C3 3.675 3.675 3 4.5 3h21Zm0-.375h-21A1.877 1.877 0 0 0 2.625 4.5v21c0 1.034.841 1.875 1.875 1.875h21a1.877 1.877 0 0 0 1.875-1.875v-21A1.877 1.877 0 0 0 25.5 2.625Z" fill="#fff"/><path d="M15 10.812A4.189 4.189 0 0 0 10.813 15 4.188 4.188 0 0 0 15 19.186 4.188 4.188 0 0 0 19.187 15 4.189 4.189 0 0 0 15 10.812ZM10.56 20.248l-.135 3.095 1.076-1.077v-3.768H7.733l-1.076 1.077 3.095-.135-3.887 3.887.807.807 3.887-3.886ZM6.657 10.424l1.076 1.077h3.768V7.733l-1.076-1.077.134 3.095-3.887-3.886-.807.807 3.887 3.887-3.095-.135ZM23.343 19.575l-1.076-1.077h-3.768v3.768l1.076 1.077-.134-3.095 3.887 3.886.807-.807-3.887-3.887 3.095.135ZM19.44 9.751l.135-3.095L18.5 7.733V11.5h3.768l1.076-1.077-3.095.135 3.887-3.887-.808-.807-3.886 3.886Z" fill="#fff"/></svg>
